svgs/thin/hand-fingers-crossed.svg

<svg xmlns="http://www.w3.org/2000/svg" viewBox="0 0 512 512"><!--! Font Awesome Pro 6.3.0 by @fontawesome - https://fontawesome.com License - https://fontawesome.com/license (Commercial License) Copyright 2023 Fonticons, Inc. --><path d="M400 207.9c-12.91 0-24.6 5.182-33.24 13.5C361.1 199.1 342.9 183.9 320 183.9c-26.47 0-48 21.53-48 48v26.69c-9.618-6.669-21.19-10.53-33.36-10.53c-3.905 0-7.872 .3967-11.86 1.224L122.4 271.7l96.35-235.9C227.1 15.57 247.7 15.1 248.3 15.1c16.79 0 31.98 13.34 31.98 31.96c0 4.172-.8282 8.349-2.477 12.33L212.4 220.4C212 221.4 211.8 222.4 211.8 223.4c0 3.467 2.716 8.013 7.983 8.013c3.154 0 6.141-1.895 7.421-4.975l65.38-160.1c2.473-5.93 3.707-12.16 3.707-18.4C296.3 22.6 276.1 0 248.3 0c-.9404 0-31.75-.7484-44.4 29.68l-15.72 38.48L172.3 29.64C164.7 11.17 146.8 .0036 127.1 .0036c-25.1 0-47.99 19.85-47.99 48.01c0 6.222 1.227 12.44 3.68 18.37l53 127.1L103.5 275.6c-.0459 .113-.062 .2253-.062 .3373c0 .2631 .0783 .6293 .0783 .8963c0 .0692 .015-.07 0 0C80.46 284.8 64 306.3 64 331.1v64.36c0 18.06 8.188 34.78 22.44 45.84l48.03 37.36C162.1 500.2 196.6 512 231.6 512h66.5C380.8 512 448 444.8 448 362.1V255.1C448 229.5 426.5 207.9 400 207.9zM98.44 60.25C96.81 56.3 95.99 52.14 95.99 47.98c0-16.8 13.38-31.98 32.03-31.98c.624 0 21.21-.4387 29.54 19.75l22.03 53.51L145.3 173.3L98.44 60.25zM288 231.9c0-17.64 14.34-32 32-32s32 14.36 32 32v72c0 17.64-14.34 31.1-32 31.1c-15.22 0-23.32-9.872-25.74-12.81c1.761-5.703 2.719-11.62 2.719-17.6c0-14.45-5.555-24.64-8.981-30.09V231.9zM298.1 496h-66.5c-31.47 0-62.47-10.64-87.31-29.94l-48.03-37.36C85.94 420.7 80 408.6 80 395.5v-64.36c0-19.72 13.1-37.03 33.28-41.14l116.8-25.05c2.935-.6122 5.86-.9065 8.741-.9065c20.92 0 42.23 16.65 42.23 42.13c0 19.07-13.22 36.79-33.29 41.07L170.5 363.8c-3.743 .8136-6.308 4.122-6.308 7.801c0 3.983 3.005 8.005 8.052 8.005c.5339 0 1.079-.0487 1.631-.1496l77.28-16.55c14.8-3.189 27.48-11.87 35.93-24.41c8.855 8.465 20.4 13.49 32.92 13.49c12.91 0 24.6-5.258 33.23-13.58C358 359.8 377.1 375.9 400 375.9c12.27 0 23.36-4.764 31.86-12.37C431.1 436.7 371.4 496 298.1 496zM432 327.9c0 17.64-14.34 32-32 32s-31.1-14.21-31.1-31.85L368 255.9c0-17.64 14.34-32 32-32s32 14.36 32 32V327.9z"/></svg>

<svg xmlns="http://www.w3.org/2000/svg" viewBox="0 0 512 512"><!-- Font Awesome Pro 6.0.0-alpha2 by @fontawesome - https://fontawesome.com License - https://fontawesome.com/license (Commercial License) --><path d="M400 207.893C387.086 207.893 375.398 213.074 366.764 221.396C361.953 199.975 342.854 183.893 320 183.893C293.531 183.893 272 205.424 272 231.893V258.584C262.382 251.915 250.814 248.059 238.639 248.059C234.734 248.059 230.767 248.456 226.781 249.283L122.365 271.66L195.6 92.369C195.613 92.336 195.623 92.311 195.637 92.277L218.719 35.77C227.117 15.57 247.711 15.996 248.336 15.996C265.129 15.996 280.32 29.34 280.32 47.956C280.32 52.128 279.492 56.305 277.844 60.285L212.438 220.408C212.036 221.4 211.846 222.425 211.846 223.433C211.846 226.9 214.562 231.446 219.829 231.446C222.984 231.446 225.97 229.551 227.25 226.471L292.625 66.377C295.098 60.447 296.332 54.214 296.332 47.982C296.332 22.597 276.14 0 248.336 0C247.396 0 216.588 -0.748 203.937 29.676L188.217 68.154L172.344 29.645C164.678 11.165 146.777 0.011 127.951 0.011C102.853 0.011 79.977 19.851 79.977 48.011C79.977 54.234 81.203 60.456 83.656 66.377L136.658 194.355L103.469 275.596C103.423 275.709 103.407 275.821 103.407 275.933C103.407 276.196 103.496 276.458 103.496 276.725C103.496 276.794 103.49 276.864 103.475 276.934C80.451 284.922 64 306.287 64 331.125V395.484C64 413.547 72.188 430.266 86.438 441.328L134.469 478.688C162.094 500.172 196.594 512 231.594 512H298.094C380.75 512 448 444.75 448 362.094V255.893C448 229.424 426.469 207.893 400 207.893ZM98.438 60.254C96.809 56.299 95.988 52.14 95.988 47.984C95.988 31.186 109.371 16 128.022 16C128.646 16 149.229 15.561 157.563 35.754L179.594 89.262L145.271 173.271L98.438 60.254ZM288 231.893C288 214.252 302.344 199.893 320 199.893S352 214.252 352 231.893V303.893C352 321.531 337.656 335.891 320 335.891C304.783 335.891 296.68 326.018 294.262 323.082C296.023 317.379 296.981 311.464 296.981 305.486C296.981 291.032 291.426 280.844 288 275.396V231.893ZM298.094 496H231.594C200.125 496 169.125 485.359 144.281 466.062L96.25 428.703C85.938 420.688 80 408.578 80 395.484V331.125C80 311.408 93.999 294.096 113.281 289.986L230.094 264.939C233.028 264.327 235.954 264.033 238.835 264.033C259.76 264.033 281.067 280.68 281.067 306.166C281.067 325.234 267.849 342.958 247.781 347.234L170.5 363.781C166.757 364.595 164.192 367.903 164.192 371.582C164.192 375.566 167.196 379.587 172.244 379.587C172.778 379.587 173.323 379.538 173.875 379.438L251.156 362.891C265.959 359.701 278.637 351.021 287.084 338.479C295.939 346.943 307.48 351.891 320 351.891C332.914 351.891 344.602 346.709 353.236 338.387C358.047 359.809 377.146 375.891 400 375.891C412.271 375.891 423.361 371.127 431.855 363.525C431.066 436.695 371.447 496 298.094 496ZM432 327.891C432 345.531 417.656 359.891 400 359.891S368 345.531 368 327.891V255.893C368 238.252 382.344 223.893 400 223.893S432 238.252 432 255.893V327.891Z"/></svg>
